src/icons/sort.svg

<svg viewBox="0 0 16 16" fill="none" xmlns="http://www.w3.org/2000/svg">
<g clip-path="url(#clip0)">
<path d="M12.875 2H3.125C2.50368 2 2 2.53726 2 3.2C2 3.86274 2.50368 4.4 3.125 4.4H12.875C13.4963 4.4 14 3.86274 14 3.2C14 2.53726 13.4963 2 12.875 2Z" fill="white"/>
<path opacity="0.44" d="M6.875 13.9999C6.57663 13.9999 6.29048 13.8735 6.0795 13.6485C5.86853 13.4234 5.75 13.1182 5.75 12.7999C5.75 12.4817 5.86853 12.1764 6.0795 11.9514C6.29048 11.7264 6.57663 11.5999 6.875 11.5999H9.125C9.42337 11.5999 9.70952 11.7264 9.9205 11.9514C10.1315 12.1764 10.25 12.4817 10.25 12.7999C10.25 13.1182 10.1315 13.4234 9.9205 13.6485C9.70952 13.8735 9.42337 13.9999 9.125 13.9999H6.875ZM4.625 9.19993C4.32663 9.19993 4.04048 9.0735 3.8295 8.84845C3.61853 8.62341 3.5 8.31819 3.5 7.99993C3.5 7.68167 3.61853 7.37644 3.8295 7.1514C4.04048 6.92635 4.32663 6.79993 4.625 6.79993H11.375C11.6734 6.79993 11.9595 6.92635 12.1705 7.1514C12.3815 7.37644 12.5 7.68167 12.5 7.99993C12.5 8.31819 12.3815 8.62341 12.1705 8.84845C11.9595 9.0735 11.6734 9.19993 11.375 9.19993H4.625Z" fill="white"/>
</g>
</svg>

<svg viewBox="0 0 16 16" fill="none" xmlns="http://www.w3.org/2000/svg"><g clip-path="url(#clip0)" fill="#fff"><path d="M12.875 2h-9.75C2.504 2 2 2.537 2 3.2c0 .663.504 1.2 1.125 1.2h9.75C13.496 4.4 14 3.863 14 3.2c0-.663-.504-1.2-1.125-1.2z"/><path opacity=".44" d="M6.875 14a1.09 1.09 0 0 1-.795-.351 1.242 1.242 0 0 1-.33-.85c0-.317.119-.623.33-.848a1.09 1.09 0 0 1 .795-.351h2.25c.298 0 .585.126.796.351.21.225.329.53.329.849 0 .318-.118.623-.33.848a1.09 1.09 0 0 1-.795.352h-2.25zm-2.25-4.8a1.09 1.09 0 0 1-.796-.352A1.242 1.242 0 0 1 3.5 8c0-.318.119-.624.33-.849a1.09 1.09 0 0 1 .795-.351h6.75c.298 0 .585.126.796.351.21.225.329.53.329.849 0 .318-.118.623-.33.848a1.09 1.09 0 0 1-.795.352h-6.75z"/></g></svg>
